X:335
T:Staffordshire Hornpipe
R:hp 32
C:Trad.
S:Ian Dedic
M:4/4
L:1/8
Q:1/4=160
K:G
DEF|:"G"G2"^(E)"e2"C"cB AG|"D"FA dc "G"B3A|G2"^(E)"e2 "C"cB AG|"D"FAd2 DF AF|
"G"G2"^(E)"e2 "C"cB AG|"D"FA dc "G"B2"^(B)"G2|"C"ce dc "D"BG AF|1"G"G4-GDF:|2"G"G4GD "^(D)"GA|]
|:"G"B2"^(A)"A2"B"G2F2|"C"EF GE "G"D4|GD GA BG Bc|d2"^(C)"cB "D"A3c|
"G"B2"^(A)"A2"B"G2F2|"C"EF GE "G"D4|"C"ce dc "D"BG AF|1"G"G4- GD "^(D)"GA:|2"G"G4- G|]

